img/icons/point.svg

<svg width="13" height="16" viewBox="0 0 13 16" fill="none" xmlns="http://www.w3.org/2000/svg">
<path fill-rule="evenodd" clip-rule="evenodd" d="M12.3633 5.98502C12.3633 7.10231 12.0564 8.14809 11.522 9.04305H11.5321L11.4797 9.11291C11.2865 9.42672 11.065 9.7214 10.8189 9.99342L6.31152 16L1.89569 9.98018C0.942861 8.9207 0.363281 7.52038 0.363281 5.98502C0.363281 2.67959 3.04957 0 6.36328 0C9.67699 0 12.3633 2.67959 12.3633 5.98502ZM6.36328 8.47879C7.74399 8.47879 8.86328 7.3623 8.86328 5.98503C8.86328 4.60777 7.74399 3.49127 6.36328 3.49127C4.98257 3.49127 3.86328 4.60777 3.86328 5.98503C3.86328 7.3623 4.98257 8.47879 6.36328 8.47879Z" fill="#409AFF"/>
</svg>

<svg width="13" height="16" fill="none" xmlns="http://www.w3.org/2000/svg"><path fill-rule="evenodd" clip-rule="evenodd" d="M12.363 5.985a5.945 5.945 0 01-.841 3.058h.01l-.052.07a6.007 6.007 0 01-.661.88L6.312 16 1.896 9.98A5.954 5.954 0 01.363 5.985C.363 2.68 3.05 0 6.363 0c3.314 0 6 2.68 6 5.985zm-6 2.494c1.381 0 2.5-1.117 2.5-2.494a2.497 2.497 0 00-2.5-2.494c-1.38 0-2.5 1.117-2.5 2.494a2.497 2.497 0 002.5 2.494z" fill="#409AFF"/></svg>
